public/images/poses-sm/HalfBow.svg

<svg width="800" height="900" fill="none" xmlns="http://www.w3.org/2000/svg"><path d="M325.256 495.401s-6.643 54.517 14.246 124.505c4.33 14.511 11.488 27.892 19.232 40.909 1.32 2.217 1.009 4.482-3.924 5.711-11.846 2.959-50.347-8.879-91.81 5.92-41.463 14.8-53.309-2.96-53.309-2.96s-8.885-14.799-23.693 0c-9.357 9.352-10.586 18.958-23.693 20.722-.462.06-11.372 2.902-11.847 2.958-20.782 2.599-29.616 11.84-26.655 17.762 2.962 5.92 20.732 0 85.887-2.96 0 0 165.851 11.84 186.582 5.921 20.732-5.921 17.77-20.722 17.77-20.722 2.135-51.439.761-100.234-5.924-145.042l-82.862-52.724Z" fill="#fff" stroke="#000" stroke-width="5" stroke-miterlimit="10"/><path d="M325.256 495.401s-6.643 54.517 14.246 124.505c4.33 14.511 11.488 27.892 19.232 40.909 1.32 2.217 1.009 4.482-3.924 5.711-11.846 2.959-50.347-8.879-91.81 5.92-41.463 14.8-53.309-2.96-53.309-2.96s-8.885-14.799-23.693 0c-9.357 9.352-10.586 18.958-23.693 20.722-.462.06-11.372 2.902-11.847 2.958-20.782 2.599-29.616 11.84-26.655 17.762 2.962 5.92 20.732 0 85.887-2.96 0 0 165.851 11.84 186.582 5.921 20.732-5.921 17.77-20.722 17.77-20.722 2.135-51.439.761-100.234-5.924-145.042l-82.862-52.724Z" stroke="#000" stroke-width="5" stroke-miterlimit="10"/><path d="m519.8 413.077-40.599-92.878s-41.463-85.842-44.425-94.721c-2.961-8.88-37.19-21.389-37.19-21.389s-1.886-25.894 20.609-33.334c22.504-7.439 31.389 34.002 31.389 34.002s41.462 59.201 53.309 85.841c11.846 26.641 69.299 107.965 69.299 107.965L519.8 413.077Z" fill="#fff" stroke="#000" stroke-width="5" stroke-miterlimit="10"/><path d="m519.8 413.077-40.599-92.878s-41.463-85.842-44.425-94.721c-2.961-8.88-37.19-21.389-37.19-21.389s-1.886-25.894 20.609-33.334c22.504-7.439 31.389 34.002 31.389 34.002s41.462 59.201 53.309 85.841c11.846 26.641 69.299 107.965 69.299 107.965L519.8 413.077Z" stroke="#000" stroke-width="5" stroke-miterlimit="10"/><path d="M633.203 385.321s-8.883 20.72-17.77 32.56c-8.885 11.841-26.654 32.561-26.654 32.561l-8.885 35.52c-4.14 16.549-30.184 33.239-40.143 38.224a142.842 142.842 0 0 0-14.333 8.247c-15.9 10.432-57.739 33.451-117.297 33.451 0 0 32.578-29.601 26.654-82.882 0 0 37.015-15.116 65.443-50.44 9.19-11.423 20.174-21.344 33.053-28.352 11.665-6.351 25.141-11.178 34.776-7.05 20.732 8.879 32.643-12.867 26.688-21.232" fill="#fff"/><path d="M633.203 385.321s-8.883 20.72-17.77 32.56c-8.885 11.841-26.654 32.561-26.654 32.561l-8.885 35.52c-4.14 16.549-30.184 33.239-40.143 38.224a142.842 142.842 0 0 0-14.333 8.247c-15.9 10.432-57.739 33.451-117.297 33.451 0 0 32.578-29.601 26.654-82.882 0 0 37.015-15.116 65.443-50.44 9.19-11.423 20.174-21.344 33.053-28.352 11.665-6.351 25.141-11.178 34.776-7.05 20.732 8.879 32.643-12.867 26.688-21.232" stroke="#000" stroke-width="5" stroke-miterlimit="10"/><path d="M633.203 385.321s-8.883 20.72-17.77 32.56c-8.885 11.841-26.654 32.561-26.654 32.561l-8.885 35.52c-4.14 16.549-30.184 33.239-40.143 38.224a142.842 142.842 0 0 0-14.333 8.247c-15.9 10.432-57.739 33.451-117.297 33.451 0 0 32.578-29.601 26.654-82.882 0 0 37.015-15.116 65.443-50.44 9.19-11.423 20.174-21.344 33.053-28.352 11.665-6.351 25.141-11.178 34.776-7.05 20.732 8.879 32.643-12.867 26.688-21.232" stroke="#000" stroke-width="5" stroke-miterlimit="10" stroke-linejoin="bevel"/><path d="M590.647 377.405c-8.34-5.865-8.116-15.592-14.338-24.879-9.879-14.76 2.541-39.666 21.285-47.188 24.747-9.927 65.249 74.32 51.962 82.321-7.876 4.741-26.142 4.932-43.372-3.452-5.543-2.694-15.537-6.802-15.537-6.802Z" fill="#fff" stroke="#000" stroke-width="5" stroke-miterlimit="10"/><path d="M590.647 377.405c-8.34-5.865-8.116-15.592-14.338-24.879-9.879-14.76 2.541-39.666 21.285-47.188 24.747-9.927 65.249 74.32 51.962 82.321-7.876 4.741-26.142 4.932-43.372-3.452-5.543-2.694-15.537-6.802-15.537-6.802Z" stroke="#000" stroke-width="5" stroke-miterlimit="10"/><path d="M608.59 310.171c8.11 12.418.037 32.752-8.88 35.342-8.916 2.596-14.713 5.388-14.113 8.493.599 3.11 3.535 7.221 6.079 6.314 2.543-.917 7.124-4.891 9.822-.451 2.696 4.435 1.78 19.784-5.864 27.953-7.645 8.169-24.279 7.108-36.345-4.952-12.069-12.063-10.41-38.347-1.626-56.446 4.234-8.73 11.61-16.055 19.351-19.755 12.758-6.095 23.622-8.678 31.576 3.502Z" fill="#100200" stroke="#000" stroke-width="5" stroke-miterlimit="10"/><path d="M556.994 338.957c-2.105 9.551-1.665 20.706-14.023 28.138-12.358 7.429-20.708.145-27.468 6.707-6.763 6.561-13.376 32.427-26.518 38.642-13.145 6.21-16.295-5.044-30.846 1.521-12.448 5.614-.85 29.172-29.747 38.576-13.864 4.512-53.744-84.417-35.158-90.65 18.585-6.237 31.689 5.256 41.554.463 9.864-4.793 7.829-20.669 21.53-26.236 19.206-7.799 29.957 12.196 44.259 6.261 11.763-4.885 10.454-13.615 24.51-18.922 14.055-5.313 31.907 15.5 31.907 15.5Z" fill="#100200" stroke="#000" stroke-width="5" stroke-miterlimit="10"/><path d="M277.805 323.159s5.923 201.285 130.312 242.725c0 0 28.095-10.71 32.578-85.842 0 0-8.885 8.879-11.848-2.959-2.96-11.84-17.77-32.56-41.462-41.44-23.694-8.88-50.348-115.444-50.348-115.444s38.501-17.76 53.309-50.321c4.724-10.383 8.244-18.36 10.842-24.408 4.11-9.549 11.989-16.78 21.613-20.714 4.476-1.833 8.39-4.464 9.007-8.159 2.962-17.76-6.361-17.321 8.885-32.561 8.884-8.88 20.731-41.44 0-41.44-6.408 0-23.463 29.11-33.59 47.489-5.507 9.991-12.842 18.841-21.602 26.149-21.07 17.583-59.916 49.861-69.195 56.605-32.578 23.68-38.501 35.521-38.501 38.48v11.84Z" fill="#fff" stroke="#000" stroke-width="5" stroke-miterlimit="10"/><path d="M277.805 323.159s5.923 201.285 130.312 242.725c0 0 28.095-10.71 32.578-85.842 0 0-8.885 8.879-11.848-2.959-2.96-11.84-17.77-32.56-41.462-41.44-23.694-8.88-50.348-115.444-50.348-115.444s38.501-17.76 53.309-50.321c4.724-10.383 8.244-18.36 10.842-24.408 4.11-9.549 11.989-16.78 21.613-20.714 4.476-1.833 8.39-4.464 9.007-8.159 2.962-17.76-6.361-17.321 8.885-32.561 8.884-8.88 20.731-41.44 0-41.44-6.408 0-23.463 29.11-33.59 47.489-5.507 9.991-12.842 18.841-21.602 26.149-21.07 17.583-59.916 49.861-69.195 56.605-32.578 23.68-38.501 35.521-38.501 38.48v11.84Z" stroke="#000" stroke-width="5" stroke-miterlimit="10" stroke-linejoin="bevel"/><path d="M381.996 219.161s14.861 3.254 21.972 21.065Z" fill="#fff"/><path d="M381.996 219.161s14.861 3.254 21.972 21.065" stroke="#000" stroke-width="5" stroke-miterlimit="10"/><path d="M381.996 219.161s14.861 3.254 21.972 21.065" stroke="#000" stroke-width="5" stroke-miterlimit="10" stroke-linejoin="bevel"/><path d="M572.19 398.56s-3.474 17.815 4.743 28.201c8.252 10.432 28.977 17.931 6.726 44.147" fill="#fff"/><path d="M572.19 398.56s-3.474 17.815 4.743 28.201c8.252 10.432 28.977 17.931 6.726 44.147" stroke="#000" stroke-width="5" stroke-miterlimit="10"/><path d="M572.19 398.56s-3.474 17.815 4.743 28.201c8.252 10.432 28.977 17.931 6.726 44.147" stroke="#000" stroke-width="5" stroke-miterlimit="10"/><path d="M561.664 432.066c9.744-1.069 27.115.616 30.078 24.296 2.732 21.851 7.403 111.744 8.884 148.005 1.48 36.26-6.83 116.677-.612 127.965 6.216 11.283 16.826 5.871 30.885 8.115 14.062 2.245 41.457 8.347 44.418 12.975 2.961 4.622-9.959 3.862-12.586 3.802-2.627-.058-62.816.867-69.423-.977-6.604-1.85-14.195.237-19.429-28.174-5.234-28.407-6.473-80.962-11.755-123.707-5.28-42.739-19.491-131.286-19.153-144.701.336-13.417 3.577-25.934 18.693-27.599Z" fill="#fff" stroke="#000" stroke-width="5" stroke-miterlimit="10"/><path d="M561.664 432.066c9.744-1.069 27.115.616 30.078 24.296 2.732 21.851 7.403 111.744 8.884 148.005 1.48 36.26-6.83 116.677-.612 127.965 6.216 11.283 16.826 5.871 30.885 8.115 14.062 2.245 41.457 8.347 44.418 12.975 2.961 4.622-9.959 3.862-12.586 3.802-2.627-.058-62.816.867-69.423-.977-6.604-1.85-14.195.237-19.429-28.174-5.234-28.407-6.473-80.962-11.755-123.707-5.28-42.739-19.491-131.286-19.153-144.701.336-13.417 3.577-25.934 18.693-27.599Z" stroke="#000" stroke-width="5" stroke-miterlimit="10"/><path d="M397.583 204.088s21.805-2.214 20.61-33.333c-3.34-2.066-29.562 9.254-20.61 33.333Z" fill="#fff" stroke="#000" stroke-width="5" stroke-miterlimit="10"/><path d="M397.583 204.088s21.805-2.214 20.61-33.333c-3.34-2.066-29.562 9.254-20.61 33.333Z" stroke="#000" stroke-width="5" stroke-miterlimit="10"/><path d="M241.528 677.81s-13.226 3.797-7.723 31.78Z" fill="#fff"/><path d="M241.528 677.81s-13.226 3.797-7.723 31.78" stroke="#000" stroke-width="5" stroke-miterlimit="10"/><path d="M241.528 677.81s-13.226 3.797-7.723 31.78" stroke="#000" stroke-width="5" stroke-miterlimit="10"/></svg>

<svg width="800" height="900" viewBox="0 0 800 900" fill="none" xmlns="http://www.w3.org/2000/svg">
<path d="M325.256 495.401C325.256 495.401 318.613 549.918 339.502 619.906C343.832 634.417 350.99 647.798 358.734 660.815C360.054 663.032 359.743 665.297 354.81 666.526C342.964 669.485 304.463 657.647 263 672.446C221.537 687.246 209.691 669.486 209.691 669.486C209.691 669.486 200.806 654.687 185.998 669.486C176.641 678.838 175.412 688.444 162.305 690.208C161.843 690.268 150.933 693.11 150.458 693.166C129.676 695.765 120.842 705.006 123.803 710.928C126.765 716.848 144.535 710.928 209.69 707.968C209.69 707.968 375.541 719.808 396.272 713.889C417.004 707.968 414.042 693.167 414.042 693.167C416.177 641.728 414.803 592.933 408.118 548.125L325.256 495.401Z" fill="white" stroke="black" stroke-width="5" stroke-miterlimit="10"/>
<path d="M325.256 495.401C325.256 495.401 318.613 549.918 339.502 619.906C343.832 634.417 350.99 647.798 358.734 660.815C360.054 663.032 359.743 665.297 354.81 666.526C342.964 669.485 304.463 657.647 263 672.446C221.537 687.246 209.691 669.486 209.691 669.486C209.691 669.486 200.806 654.687 185.998 669.486C176.641 678.838 175.412 688.444 162.305 690.208C161.843 690.268 150.933 693.11 150.458 693.166C129.676 695.765 120.842 705.006 123.803 710.928C126.765 716.848 144.535 710.928 209.69 707.968C209.69 707.968 375.541 719.808 396.272 713.889C417.004 707.968 414.042 693.167 414.042 693.167C416.177 641.728 414.803 592.933 408.118 548.125L325.256 495.401Z" stroke="black" stroke-width="5" stroke-miterlimit="10"/>
<path d="M519.8 413.077L479.201 320.199C479.201 320.199 437.738 234.357 434.776 225.478C431.815 216.598 397.586 204.089 397.586 204.089C397.586 204.089 395.7 178.195 418.195 170.755C440.699 163.316 449.584 204.757 449.584 204.757C449.584 204.757 491.046 263.958 502.893 290.598C514.739 317.239 572.192 398.563 572.192 398.563L519.8 413.077Z" fill="white" stroke="black" stroke-width="5" stroke-miterlimit="10"/>
<path d="M519.8 413.077L479.201 320.199C479.201 320.199 437.738 234.357 434.776 225.478C431.815 216.598 397.586 204.089 397.586 204.089C397.586 204.089 395.7 178.195 418.195 170.755C440.699 163.316 449.584 204.757 449.584 204.757C449.584 204.757 491.046 263.958 502.893 290.598C514.739 317.239 572.192 398.563 572.192 398.563L519.8 413.077Z" stroke="black" stroke-width="5" stroke-miterlimit="10"/>
<path d="M633.203 385.321C633.203 385.321 624.32 406.041 615.433 417.881C606.548 429.722 588.779 450.442 588.779 450.442L579.894 485.962C575.754 502.511 549.71 519.201 539.751 524.186C534.813 526.657 530.04 529.407 525.418 532.433C509.518 542.865 467.679 565.884 408.121 565.884C408.121 565.884 440.699 536.283 434.775 483.002C434.775 483.002 471.79 467.886 500.218 432.562C509.408 421.139 520.392 411.218 533.271 404.21C544.936 397.859 558.412 393.032 568.047 397.16C588.779 406.039 600.69 384.293 594.735 375.928" fill="white"/>
<path d="M633.203 385.321C633.203 385.321 624.32 406.041 615.433 417.881C606.548 429.722 588.779 450.442 588.779 450.442L579.894 485.962C575.754 502.511 549.71 519.201 539.751 524.186C534.813 526.657 530.04 529.407 525.418 532.433C509.518 542.865 467.679 565.884 408.121 565.884C408.121 565.884 440.699 536.283 434.775 483.002C434.775 483.002 471.79 467.886 500.218 432.562C509.408 421.139 520.392 411.218 533.271 404.21C544.936 397.859 558.412 393.032 568.047 397.16C588.779 406.039 600.69 384.293 594.735 375.928" stroke="black" stroke-width="5" stroke-miterlimit="10"/>
<path d="M633.203 385.321C633.203 385.321 624.32 406.041 615.433 417.881C606.548 429.722 588.779 450.442 588.779 450.442L579.894 485.962C575.754 502.511 549.71 519.201 539.751 524.186C534.813 526.657 530.04 529.407 525.418 532.433C509.518 542.865 467.679 565.884 408.121 565.884C408.121 565.884 440.699 536.283 434.775 483.002C434.775 483.002 471.79 467.886 500.218 432.562C509.408 421.139 520.392 411.218 533.271 404.21C544.936 397.859 558.412 393.032 568.047 397.16C588.779 406.039 600.69 384.293 594.735 375.928" stroke="black" stroke-width="5" stroke-miterlimit="10" stroke-linejoin="bevel"/>
<path d="M590.647 377.405C582.307 371.54 582.531 361.813 576.309 352.526C566.43 337.766 578.85 312.86 597.594 305.338C622.341 295.411 662.843 379.658 649.556 387.659C641.68 392.4 623.414 392.591 606.184 384.207C600.641 381.513 590.647 377.405 590.647 377.405Z" fill="white" stroke="black" stroke-width="5" stroke-miterlimit="10"/>
<path d="M590.647 377.405C582.307 371.54 582.531 361.813 576.309 352.526C566.43 337.766 578.85 312.86 597.594 305.338C622.341 295.411 662.843 379.658 649.556 387.659C641.68 392.4 623.414 392.591 606.184 384.207C600.641 381.513 590.647 377.405 590.647 377.405Z" stroke="black" stroke-width="5" stroke-miterlimit="10"/>
<path d="M608.59 310.171C616.7 322.589 608.627 342.923 599.71 345.513C590.794 348.109 584.997 350.901 585.597 354.006C586.196 357.116 589.132 361.227 591.676 360.32C594.219 359.403 598.8 355.429 601.498 359.869C604.194 364.304 603.278 379.653 595.634 387.822C587.989 395.991 571.355 394.93 559.289 382.87C547.22 370.807 548.879 344.523 557.663 326.424C561.897 317.694 569.273 310.369 577.014 306.669C589.772 300.574 600.636 297.991 608.59 310.171Z" fill="#100200" stroke="black" stroke-width="5" stroke-miterlimit="10"/>
<path d="M556.994 338.957C554.889 348.508 555.329 359.663 542.971 367.095C530.613 374.524 522.263 367.24 515.503 373.802C508.74 380.363 502.127 406.229 488.985 412.444C475.84 418.654 472.69 407.4 458.139 413.965C445.691 419.579 457.289 443.137 428.392 452.541C414.528 457.053 374.648 368.124 393.234 361.891C411.819 355.654 424.923 367.147 434.788 362.354C444.652 357.561 442.617 341.685 456.318 336.118C475.524 328.319 486.275 348.314 500.577 342.379C512.34 337.494 511.031 328.764 525.087 323.457C539.142 318.144 556.994 338.957 556.994 338.957Z" fill="#100200" stroke="black" stroke-width="5" stroke-miterlimit="10"/>
<path d="M277.805 323.159C277.805 323.159 283.728 524.444 408.117 565.884C408.117 565.884 436.212 555.174 440.695 480.042C440.695 480.042 431.81 488.921 428.847 477.083C425.887 465.243 411.077 444.523 387.385 435.643C363.691 426.763 337.037 320.199 337.037 320.199C337.037 320.199 375.538 302.439 390.346 269.878C395.07 259.495 398.59 251.518 401.188 245.47C405.298 235.921 413.177 228.69 422.801 224.756C427.277 222.923 431.191 220.292 431.808 216.597C434.77 198.837 425.447 199.276 440.693 184.036C449.577 175.156 461.424 142.596 440.693 142.596C434.285 142.596 417.23 171.706 407.103 190.085C401.596 200.076 394.261 208.926 385.501 216.234C364.431 233.817 325.585 266.095 316.306 272.839C283.728 296.519 277.805 308.36 277.805 311.319V323.159H277.805Z" fill="white" stroke="black" stroke-width="5" stroke-miterlimit="10"/>
<path d="M277.805 323.159C277.805 323.159 283.728 524.444 408.117 565.884C408.117 565.884 436.212 555.174 440.695 480.042C440.695 480.042 431.81 488.921 428.847 477.083C425.887 465.243 411.077 444.523 387.385 435.643C363.691 426.763 337.037 320.199 337.037 320.199C337.037 320.199 375.538 302.439 390.346 269.878C395.07 259.495 398.59 251.518 401.188 245.47C405.298 235.921 413.177 228.69 422.801 224.756C427.277 222.923 431.191 220.292 431.808 216.597C434.77 198.837 425.447 199.276 440.693 184.036C449.577 175.156 461.424 142.596 440.693 142.596C434.285 142.596 417.23 171.706 407.103 190.085C401.596 200.076 394.261 208.926 385.501 216.234C364.431 233.817 325.585 266.095 316.306 272.839C283.728 296.519 277.805 308.36 277.805 311.319V323.159H277.805Z" stroke="black" stroke-width="5" stroke-miterlimit="10" stroke-linejoin="bevel"/>
<path d="M381.996 219.161C381.996 219.161 396.857 222.415 403.968 240.226Z" fill="white"/>
<path d="M381.996 219.161C381.996 219.161 396.857 222.415 403.968 240.226" stroke="black" stroke-width="5" stroke-miterlimit="10"/>
<path d="M381.996 219.161C381.996 219.161 396.857 222.415 403.968 240.226" stroke="black" stroke-width="5" stroke-miterlimit="10" stroke-linejoin="bevel"/>
<path d="M572.19 398.56C572.19 398.56 568.716 416.375 576.933 426.761C585.185 437.193 605.91 444.692 583.659 470.908" fill="white"/>
<path d="M572.19 398.56C572.19 398.56 568.716 416.375 576.933 426.761C585.185 437.193 605.91 444.692 583.659 470.908" stroke="black" stroke-width="5" stroke-miterlimit="10"/>
<path d="M572.19 398.56C572.19 398.56 568.716 416.375 576.933 426.761C585.185 437.193 605.91 444.692 583.659 470.908" stroke="black" stroke-width="5" stroke-miterlimit="10"/>
<path d="M561.664 432.066C571.408 430.997 588.779 432.682 591.742 456.362C594.474 478.213 599.145 568.106 600.626 604.367C602.106 640.627 593.796 721.044 600.014 732.332C606.23 743.615 616.84 738.203 630.899 740.447C644.961 742.692 672.356 748.794 675.317 753.422C678.278 758.044 665.358 757.284 662.731 757.224C660.104 757.166 599.915 758.091 593.308 756.247C586.704 754.397 579.113 756.484 573.879 728.073C568.645 699.666 567.406 647.111 562.124 604.366C556.844 561.627 542.633 473.08 542.971 459.665C543.307 446.248 546.548 433.731 561.664 432.066Z" fill="white" stroke="black" stroke-width="5" stroke-miterlimit="10"/>
<path d="M561.664 432.066C571.408 430.997 588.779 432.682 591.742 456.362C594.474 478.213 599.145 568.106 600.626 604.367C602.106 640.627 593.796 721.044 600.014 732.332C606.23 743.615 616.84 738.203 630.899 740.447C644.961 742.692 672.356 748.794 675.317 753.422C678.278 758.044 665.358 757.284 662.731 757.224C660.104 757.166 599.915 758.091 593.308 756.247C586.704 754.397 579.113 756.484 573.879 728.073C568.645 699.666 567.406 647.111 562.124 604.366C556.844 561.627 542.633 473.08 542.971 459.665C543.307 446.248 546.548 433.731 561.664 432.066Z" stroke="black" stroke-width="5" stroke-miterlimit="10"/>
<path d="M397.583 204.088C397.583 204.088 419.388 201.874 418.193 170.755C414.853 168.689 388.631 180.009 397.583 204.088Z" fill="white" stroke="black" stroke-width="5" stroke-miterlimit="10"/>
<path d="M397.583 204.088C397.583 204.088 419.388 201.874 418.193 170.755C414.853 168.689 388.631 180.009 397.583 204.088Z" stroke="black" stroke-width="5" stroke-miterlimit="10"/>
<path d="M241.528 677.81C241.528 677.81 228.302 681.607 233.805 709.59Z" fill="white"/>
<path d="M241.528 677.81C241.528 677.81 228.302 681.607 233.805 709.59" stroke="black" stroke-width="5" stroke-miterlimit="10"/>
<path d="M241.528 677.81C241.528 677.81 228.302 681.607 233.805 709.59" stroke="black" stroke-width="5" stroke-miterlimit="10"/>
</svg>
